X: 37489
T: Sligo Maid, The
R: reel
M: 4/4
K: Adorian
G|A2BA Bdef|gedB AGEF|G2BG dGBG|DEGA BAGB|
A2BA Bdef|gedB AGEG|B2GB ABGE|DEGA BAA:|
z|eaag a2ga|b2gb abge|dggf g3e|dega b2ag|
eaag a2ga|b2gb abge|dg~g2 edBd|efgd BAA:|

